X: 8400
T: Cow That Ate The Blanket, The
R: jig
M: 6/8
K: Gmajor
dc|B2 A BGD|GAG GBd|ege dBG|ABA AGA|
B2 A BGD|GAG GBd|ege dBG|AGF G:|
|:Bd|g2 g efg|eag fed|g2 g edB|BAG ABc|
B2 A BGD|GAG GBd|ege dBG|AGF G:|

